src/assets/icons/multicolor/cancelRequest.multicolor.svg

<svg width="16" height="16" fill="none">
  <path fill="#093971" d="M15.8047.195349c-.2604-.2604655-.6823-.2604655-.9427 0L8 7.05728 1.13802.195349c-.260405-.2604655-.682271-.2604655-.942671 0-.2604654.2604-.2604654.682267 0 .942671L7.05727 8.00001.195349 14.862c-.2604654.2604-.2604654.6823 0 .9427.130201.1302.300734.1953.471333.1953s.341128-.0651.471338-.1953L8 8.94274l6.862 6.86196c.1302.1302.3007.1953.4713.1953.1706 0 .3411-.0651.4714-.1953.2604-.2604.2604-.6823 0-.9427L8.94273 8.00001l6.86197-6.86199c.2604-.260404.2604-.682271 0-.942671z"/>
</svg>

<svg width="16" height="16" viewBox="0 0 16 16" fill="none" xmlns="http://www.w3.org/2000/svg">
<path d="M15.8047 0.195349C15.5443 -0.0651165 15.1224 -0.0651165 14.862 0.195349L8 7.05728L1.13802 0.195349C0.877615 -0.0651165 0.455749 -0.0651165 0.195349 0.195349C-0.0651164 0.455749 -0.0651164 0.877616 0.195349 1.13802L7.05727 8.00001L0.195349 14.862C-0.0651164 15.1224 -0.0651164 15.5443 0.195349 15.8047C0.32555 15.9349 0.496083 16 0.666682 16C0.837281 16 1.00781 15.9349 1.13802 15.8047L8 8.94274L14.862 15.8047C14.9922 15.9349 15.1627 16 15.3333 16C15.5039 16 15.6744 15.9349 15.8047 15.8047C16.0651 15.5443 16.0651 15.1224 15.8047 14.862L8.94273 8.00001L15.8047 1.13802C16.0651 0.877616 16.0651 0.455749 15.8047 0.195349Z" fill="#093971"/>
</svg>
